X:1
T:Title
%%score { ( 1 2 ) | ( 3 4 ) }
L:1/8
Q:1/4=106
M:4/4
K:F
V:1 treble nm="Grand Piano"
V:2 treble 
V:3 bass 
V:4 bass 
V:1
 AGFG [A,A]2 [A,F]2 | z4 [A,D]4 | [A,C]4 [A,CF]4 | [B,CE]6 z2 | BAGA [CEB]2 [B,EG]2 | %5
w: I.~H.~Meredith * * * * *|||||
 [B,CE]2 [B,CE]2 [B,CE]4 | [B,C]4 [CEB]4 | [CFA]6[K:bass] z2 | AGFG [A,A]2 [A,F]2 | %9
w: ||||
 [A,D]2 [A,D]2 [A,D]4 | z4 [_EFAc]4 | [DFB]6[K:bass] z2 | .[B,DG]2 .[B,DG]2 [DB]2 [Fd]2 | %13
w: ||||
 [Fc]2 [Fc]2 [FA]4 | B2 D2 E2 [Ec]2 | F6 z2 | [CFc]2 [CFA]2 [CFA]4 | [DFAd]2 [DFA]2 [DFA]4 | %18
w: |||||
 [DFB]2 [DFB][DFA] [DFG]2 [DFA][DFB] | z4 [EG]4 | z4 [G,CEG]4[K:bass] | z4 [DG=B]4 | %22
w: ||||
 [CGc]2 [CEc]2 [DAd]2 [=B,FG]2 | [CEGc]6 z2 | [CFc]2 [CFA]2 [CFA]4 | [DFAd]2 [DFA]2 [DFA]4 | %26
w: ||||
 [DFB]2 [DFB][DFA] [DFG]2 [DFA][DFB] | [CEc]2 [CEG]2 [CEG]4 | [CFA]2 [CFA]2 [CFc]4 | %29
w: |||
 [B,FB]2 [B,FB]2 [F_Adf]4 | [CFAc]4 [CEBc]4 | [A,CF]6 z2 |] %32
w: |||
V:2
 A,2 A,2 z4 | [A,D]2 [A,D]2 z2 C,2 | C,2 C,2 z2 [C,,C,]2 | z2 C,2 D,2 C,,2 | [CE]2 [CE]2 z4 | x8 | %6
 x8 | z2[K:bass] C,2 D,2 C,2 | A,2 A,2 z4 | x8 | [A,C]4 z2 A,2 | B,2[K:bass] F,2 D,2 F,2 | x8 | %13
 x8 | x8 | x8 | x8 | x8 | x8 | [CEGc]2 [CEG]2 C2 B,2 | [A,DF]2 [A,DF]2 z[K:bass] C,D,E, | %21
 [A,CFA]2 [DFA]2 z A,G,F, | x8 | z2 B,2 A,2 G,2 | x8 | x8 | x8 | x8 | x8 | x8 | x8 | x8 |] %32
V:3
 [F,,C,]2 [C,,C,]2 [F,,C,]2 [C,,C,]2 | [F,,C,]2 [C,,C,]2 [F,,C,]2 C,,2 | F,,2 C,,2 [F,,C,]2 z2 | %3
 [G,,C,]2 C,,2 D,,2 z2 | [G,,G,]2 [C,,C,]2 [G,,G,]2 [C,,C,]2 | %5
 [G,,G,]2 [C,,C,]2 [G,,G,]2 [C,,C,]2 | [E,,E,]2 C,,2 [G,,G,]2 [C,,C,]2 | [F,,F,]2 C,,2 D,,2 C,,2 | %8
 [F,,C,]2 [C,,C,]2 [F,,C,]2 [C,,C,]2 | [F,,C,]2 [C,,C,]2 [F,,C,]2 [C,,C,]2 | %10
 [F,,F,]2 [C,,C,]2 [F,,F,]2 A,,2 | B,,2 F,,2 D,,2 F,,2 | z ^F z A [B,,G,]2 [=B,,_A,]2 | %13
 [C,A,]2 [C,A,]2 [D,A,]4 | [G,B,D]2 [G,B,]2 [C,B,C]2 [C,B,]2 | [F,A,]2 C,2 F,,2 z2 | %16
 [F,,F,]2 [C,,C,]2 [F,,F,]2 [C,,C,]2 | [F,,F,]2 [D,,D,]2 [F,,F,]2 [D,,D,]2 | %18
 [G,,G,]2 [G,,G,][A,,A,] [B,,B,]2 [A,,A,][G,,G,] | [C,,C,]2 [C,,C,]2 [C,,C,]2 [^C,,^C,]2 | %20
 [D,,D,]2 [D,,D,]2 [E,,E,]C,,D,,E,, | [F,,F,]2 [D,,D,]2 [G,,G,]A,,G,,F,, | %22
 [E,,E,]2 [A,,A,]2 [F,,F,]2 [G,,G,]2 | [C,,C,]2 B,,2 A,,2 G,,2 | %24
 [F,,F,]2 [C,,C,]2 [F,,F,]2 [C,,C,]2 | [F,,F,]2 [D,,D,]2 [F,,F,]2 [D,,D,]2 | %26
 [G,,G,]2 [G,,G,][A,,A,] [B,,B,]2 [A,,A,][G,,G,] | [C,,C,]2 [C,,C,]2 [E,,E,]2 [C,,C,]2 | %28
 [F,,F,]2 [F,,F,]2 [_E,,_E,]4 | [D,,D,]2 [D,,D,]2 [=B,,,=B,,]4 | %30
 C,,3/2-(3:2:2C,,/=B,,/4 C,2 z z/ (3:2:2z/ B,,/4 C,2 | F,D,C,A,, F,,2 z2 |] %32
V:4
 x8 | x8 | x8 | x8 | x8 | x8 | x8 | x8 | x8 | x8 | x8 | x8 | B,,2 B,,2 z4 | x8 | x8 | x8 | x8 | %17
 x8 | x8 | x8 | x8 | x8 | x8 | x8 | x8 | x8 | x8 | x8 | x8 | x8 | z4 C,,2 z2 | x8 |] %32

